packages/common/src/icons/rocket.svg

<svg width="1em" height="1em" viewBox="0 0 40 40" xmlns="http://www.w3.org/2000/svg">
<path fill-rule="evenodd" clip-rule="evenodd" d="M33.125 33.125C35 31.25 35 27.5 35 20C35 12.5 35 8.75 33.125 6.875C31.25 5 27.5 5 20 5C12.5 5 8.75 5 6.875 6.875C5 8.75 5 12.5 5 20C5 27.5 5 31.25 6.875 33.125C8.75 35 12.5 35 20 35C27.5 35 31.25 35 33.125 33.125ZM17.9333 16.0215C20.8797 10.9211 26.3051 7.57392 27.9012 8.48181C29.4954 9.38872 29.2291 15.7395 26.2826 20.8399C25.9724 21.3769 25.6473 21.8901 25.3121 22.3791L25.3165 22.3744C24.614 23.4706 23.7962 26.166 23.9751 27.5612C24.2568 29.1053 22.8844 31.3712 22.3054 32.1286C22.2938 32.1437 22.2822 32.1592 22.2704 32.1749C22.045 32.4749 21.7611 32.8527 20.9149 32.1416L20.874 32.1072C20.3439 31.6622 20.0474 31.4132 20.3212 31.0133C21.59 28.8127 20.6055 27.2983 20.6055 27.2983L19.7213 28.2005C19.6347 28.3506 19.4175 28.3795 19.2459 28.2804L14.9553 25.8018C14.7837 25.7026 14.7002 25.4998 14.7869 25.3499L15.201 24.1508C15.201 24.1508 13.3998 24.0219 12.0992 26.2038C11.886 26.6338 11.5246 26.4967 10.8889 26.2556L10.8199 26.2294C9.77442 25.8339 9.96971 25.3881 10.1212 25.0423L10.1392 25.0008C10.5173 24.1257 11.7969 21.8068 13.2819 21.2984C14.5869 20.7732 16.369 18.6659 17.0568 17.5432C17.1878 17.1822 17.4012 16.8557 17.6174 16.525C17.7253 16.3598 17.8339 16.1936 17.9333 16.0215ZM22.1527 18.3353C22.9796 18.8202 24.0431 18.5428 24.5279 17.7159C25.0127 16.8889 24.7354 15.8255 23.9085 15.3407C23.0815 14.8558 22.0181 15.1332 21.5333 15.9601C21.0484 16.7871 21.3258 17.8505 22.1527 18.3353ZM13.4606 33.2738C12.5493 32.7395 13.7213 28.3498 14.4607 26.9226C14.5207 26.8069 14.6865 26.6184 14.962 26.7799C15.2572 26.953 15.2976 27.4037 15.3396 27.8721C15.385 28.3788 15.4323 28.9063 15.8061 29.1255C16.1927 29.3521 16.641 29.1275 17.0774 28.9089C17.4915 28.7015 17.895 28.4995 18.225 28.693C18.6802 28.9599 18.5122 29.1867 18.4253 29.304L18.4181 29.3137L18.4084 29.3272C17.5029 30.6044 14.3718 33.8081 13.4606 33.2738Z" fill="currentColor"/>
</svg>

<svg width="1em" height="1em" viewBox="0 0 40 40" xmlns="http://www.w3.org/2000/svg"><path fill-rule="evenodd" clip-rule="evenodd" d="M33.125 33.125C35 31.25 35 27.5 35 20s0-11.25-1.875-13.125S27.5 5 20 5 8.75 5 6.875 6.875 5 12.5 5 20s0 11.25 1.875 13.125S12.5 35 20 35s11.25 0 13.125-1.875zM17.933 16.021c2.947-5.1 8.372-8.447 9.968-7.54 1.594.908 1.328 7.258-1.618 12.359-.31.537-.636 1.05-.97 1.54l.004-.006c-.703 1.097-1.52 3.792-1.342 5.187.282 1.544-1.09 3.81-1.67 4.568l-.035.046c-.225.3-.509.678-1.355-.033l-.041-.035c-.53-.445-.827-.694-.553-1.094 1.269-2.2.284-3.715.284-3.715l-.884.903c-.086.15-.303.178-.475.08l-4.29-2.48c-.172-.098-.256-.301-.17-.451l.415-1.2s-1.801-.128-3.102 2.054c-.213.43-.574.293-1.21.052l-.07-.027c-1.045-.395-.85-.84-.698-1.187l.018-.041c.378-.875 1.658-3.194 3.143-3.703 1.305-.525 3.087-2.632 3.775-3.755.13-.36.344-.687.56-1.018.108-.165.217-.331.316-.503zm4.22 2.314a1.736 1.736 0 101.756-2.994 1.736 1.736 0 00-1.756 2.994zM13.46 33.274c-.912-.535.26-4.924 1-6.351.06-.116.226-.305.501-.143.295.173.336.624.378 1.092.045.507.092 1.034.466 1.253.387.227.835.003 1.271-.216.414-.207.818-.41 1.148-.216.455.267.287.494.2.611l-.007.01-.01.013c-.905 1.277-4.036 4.481-4.947 3.947z" fill="currentColor"/></svg>
